**kern	**silbe	**harmony	**phrase	**leadinstrument	**rhyme	**timestamp	**harte
*ICvox	*	*M4/4	*	*	*	*	*M4/4
*VRlead	*	*	*	*	*	*	*
*Hstimme	*	*	*	*	*	*	*
*G:	*	*G:	*	*	*	*	*G:
*M4/4	*	*	*	*	*	*	*
*clefG2	*	*	*	*	*	*	*
r;	.	1r;	.	r	.	0	N.C.
r;	.	1r;	.	r	.	0.511	N.C.
=1	=1	=1	=1	=1	=1	=1	=1
*>Letter>C	*>Letter>C	*>Letter>C	*>Letter>C	*>Letter>C	*>Letter>C	*>Letter>C	*>Letter>C
*>Label>Intro	*>Label>Intro	*>Label>Intro	*>Label>Intro	*>Label>Intro	*>Label>Intro	*>Label>Intro	*>Label>Intro
8r	.	1GM	newline	r	.	8.096	G:maj
8b-	My	.	.	.	.	.	.
8b-	ba-	.	.	.	.	.	.
8b-	-by	.	.	.	.	.	.
8b-	whis-	.	.	.	.	.	.
8a	-pers	.	.	.	.	.	.
8g	in	.	.	.	.	.	.
8d	my	.	.	.	.	.	.
=2	=2	=2	=2	=2	=2	=2	=2
*>Letter>A	*>Letter>A	*>Letter>A	*>Letter>A	*>Letter>A	*>Letter>A	*>Letter>A	*>Letter>A
*>Label>Verse	*>Label>Verse	*>Label>Verse	*>Label>Verse	*>Label>Verse	*>Label>Verse	*>Label>Verse	*>Label>Verse
8e	ear	1GM	newline	r	A	10.017	G:maj
8d	_	.	.	.	.	.	.
4r	.	.	.	.	.	.	.
4r	.	.	.	.	.	.	.
8r	.	.	.	.	.	.	.
[8g	Mmm	.	.	.	.	.	.
=3	=3	=3	=3	=3	=3	=3	=3
2.g]	_	1CM	.	r	.	11.937	C:maj
8g	Sweet	.	.	.	.	.	.
[8e	no-	.	.	.	.	.	.
=4	=4	=4	=4	=4	=4	=4	=4
8e]	_	1GM	.	r	.	13.857	G:maj
4.d	-thin's	.	.	.	.	.	.
2r	.	.	.	.	.	.	.
=5	=5	=5	=5	=5	=5	=5	=5
8r	.	1GM	.	r	.	15.777	G:maj
8b-	He	.	.	.	.	.	.
8b-	knows	.	.	.	.	.	.
8b-	the	.	.	.	.	.	.
8b-	things	.	.	.	.	.	.
8b-	I	.	.	.	.	.	.
8b-	like	.	.	.	.	.	.
8e	to	.	.	.	.	.	.
=6	=6	=6	=6	=6	=6	=6	=6
4d	hear	1GM	newline	r	A	17.697	G:maj
4r	.	.	.	.	.	.	.
4r	.	.	.	.	.	.	.
8r	.	.	.	.	.	.	.
[8g	Mmm	.	.	.	.	.	.
=7	=7	=7	=7	=7	=7	=7	=7
2.g]	_	1CM	.	r	.	19.601	C:maj
8g	Sweet	.	.	.	.	.	.
[8e	no-	.	.	.	.	.	.
=8	=8	=8	=8	=8	=8	=8	=8
8e]	_	1GM	.	r	.	21.504	G:maj
4.d	-thin's	.	.	.	.	.	.
2r	.	.	.	.	.	.	.
=9	=9	=9	=9	=9	=9	=9	=9
1r	.	1GM	.	r	.	23.408	G:maj
=10	=10	=10	=10	=10	=10	=10	=10
8e	Things	1CM	newline	r	.	25.311	C:maj
8g	he	.	.	.	.	.	.
8a	woul-	.	.	.	.	.	.
8g	-dn't	.	.	.	.	.	.
4b-	tell	.	.	.	B	.	.
4r	.	.	.	.	.	.	.
=11	=11	=11	=11	=11	=11	=11	=11
8r	.	1CM	.	r	.	27.21	C:maj
8g	No-	.	.	.	.	.	.
8a	-bo-	.	.	.	.	.	.
8b-	-dy	.	.	.	.	.	.
4g	else	.	.	.	B	.	.
4r	.	.	.	.	.	.	.
=12	=12	=12	=12	=12	=12	=12	=12
4r	.	1GM	.	SpokenWord	.	29.11	G:maj
8r	Sec-	.	.	.	.	.	.
8r	-rets	.	.	.	.	.	.
8r	ba-	.	.	.	.	.	.
4r	-by	.	.	.	.	.	.
8r	I	.	.	.	.	.	.
=13	=13	=13	=13	=13	=13	=13	=13
8r	keep	1GM	.	SpokenWord	.	31.009	G:maj
8r	them	.	.	.	.	.	.
8r	to	.	.	.	.	.	.
8r	my-	.	.	.	.	.	.
4r	-self	.	.	.	B	.	.
8e	Sweet	.	.	.	.	.	.
[8e	no-	.	.	.	.	.	.
=14	=14	=14	=14	=14	=14	=14	=14
8e]	_	1DM	newline	r	.	32.908	D:maj
8d	-thin's	.	.	.	.	.	.
4r	.	.	.	.	.	.	.
4r	.	.	.	.	.	.	.
8r	.	.	.	.	.	.	.
[8g	Mmm	.	.	.	.	.	.
=15	=15	=15	=15	=15	=15	=15	=15
2.g]	_	1CM	.	r	.	34.807	C:maj
8e	Sweet	.	.	.	.	.	.
[8e	no-	.	.	.	.	.	.
=16	=16	=16	=16	=16	=16	=16	=16
8e]	_	1GM	.	r	.	36.707	G:maj
4.d	-thin's	.	.	.	.	.	.
2r	.	.	.	.	.	.	.
=17	=17	=17	=17	=17	=17	=17	=17
8r	.	1GM	.	r	.	38.606	G:maj
8b-	We	.	.	.	.	.	.
8b-	walk	.	.	.	.	.	.
8b-	a-	.	.	.	.	.	.
4b-	-long	.	.	.	.	.	.
8g	hand	.	.	.	.	.	.
8d	in	.	.	.	.	.	.
=18	=18	=18	=18	=18	=18	=18	=18
*>Letter>A	*>Letter>A	*>Letter>A	*>Letter>A	*>Letter>A	*>Letter>A	*>Letter>A	*>Letter>A
*>Label>Verse	*>Label>Verse	*>Label>Verse	*>Label>Verse	*>Label>Verse	*>Label>Verse	*>Label>Verse	*>Label>Verse
4d	hand	1GM	newline	r	C	40.506	G:maj
4r	.	.	.	.	.	.	.
4r	.	.	.	.	.	.	.
8r	.	.	.	.	.	.	.
[8g	Mmm	.	.	.	.	.	.
=19	=19	=19	=19	=19	=19	=19	=19
2.g]	_	1CM	.	r	.	42.434	C:maj
8e	Sweet	.	.	.	.	.	.
[8e	no-	.	.	.	.	.	.
=20	=20	=20	=20	=20	=20	=20	=20
8e]	_	1GM	.	r	.	44.362	G:maj
4.d	-thin's	.	.	.	.	.	.
2r	.	.	.	.	.	.	.
=21	=21	=21	=21	=21	=21	=21	=21
8r	.	1GM	.	r	.	46.291	G:maj
4b-	Yeah,	.	.	.	.	.	.
8b-	we	.	.	.	.	.	.
4b-	both	.	.	.	.	.	.
8g	un-	.	.	.	.	.	.
8d	-der-	.	.	.	.	.	.
=22	=22	=22	=22	=22	=22	=22	=22
4d	-stand	1GM	newline	r	C	48.219	G:maj
4r	.	.	.	.	.	.	.
4r	.	.	.	.	.	.	.
8r	.	.	.	.	.	.	.
[8g	Mmm	.	.	.	.	.	.
=23	=23	=23	=23	=23	=23	=23	=23
2.g]	_	1CM	.	r	.	50.116	C:maj
8e	Sweet	.	.	.	.	.	.
[8e	no-	.	.	.	.	.	.
=24	=24	=24	=24	=24	=24	=24	=24
8e]	_	1GM	.	r	.	52.012	G:maj
4.d	-thin's	.	.	.	.	.	.
2r	.	.	.	.	.	.	.
=25	=25	=25	=25	=25	=25	=25	=25
1r	.	1GM	.	r	.	53.908	G:maj
=26	=26	=26	=26	=26	=26	=26	=26
8e	Sit-	1CM	newline	r	.	55.805	C:maj
8g	-tin'	.	.	.	.	.	.
8a	in	.	.	.	.	.	.
[8b-	t'class-	.	.	.	.	.	.
8b-]	_	.	.	.	.	.	.
8g	-room	.	.	.	.	.	.
8a	trying	.	.	.	.	.	.
8g	to	.	.	.	.	.	.
=27	=27	=27	=27	=27	=27	=27	=27
8b-	read	1CM	.	r	.	57.724	C:maj
4b-	my	.	.	.	.	.	.
8g	book	.	.	.	D	.	.
2r	.	.	.	.	.	.	.
=28	=28	=28	=28	=28	=28	=28	=28
8r	.	1GM	.	SpokenWord	.	59.643	G:maj
8r	My	.	.	.	.	.	.
8r	ba-	.	.	.	.	.	.
8r	by	.	.	.	.	.	.
8r	gave	.	.	.	.	.	.
8r	me	.	.	.	.	.	.
8r	that	.	.	.	.	.	.
8r	spe-	.	.	.	.	.	.
=29	=29	=29	=29	=29	=29	=29	=29
4r	-cial	1GM	.	SpokenWord	.	61.562	G:maj
4r	look	.	.	.	D	.	.
4r	.	.	.	.	.	.	.
8e	Sweet	.	.	.	.	.	.
[8e	no-	.	.	.	.	.	.
=30	=30	=30	=30	=30	=30	=30	=30
8e]	_	1DM	newline	r	.	63.481	D:maj
4.d	-thin's	.	.	.	.	.	.
4r	.	.	.	.	.	.	.
8r	.	.	.	.	.	.	.
[8g	Mmm	.	.	.	.	.	.
=31	=31	=31	=31	=31	=31	=31	=31
2.g]	_	1CM	.	r	.	65.368	C:maj
8e	Sweet	.	.	.	.	.	.
[8e	no-	.	.	.	.	.	.
=32	=32	=32	=32	=32	=32	=32	=32
8e]	_	1GM	.	r	.	67.255	G:maj
4.d	-thin's	.	.	.	.	.	.
2r	.	.	.	.	.	.	.
=33	=33	=33	=33	=33	=33	=33	=33
1r	.	1GM	.	r	.	69.142	G:maj
=34	=34	=34	=34	=34	=34	=34	=34
*>Letter>D	*>Letter>D	*>Letter>D	*>Letter>D	*>Letter>D	*>Letter>D	*>Letter>D	*>Letter>D
*>Label>Instrumental	*>Label>Instrumental	*>Label>Instrumental	*>Label>Instrumental	*>Label>Instrumental	*>Label>Instrumental	*>Label>Instrumental	*>Label>Instrumental
1r	.	1GM	newline	r	.	71.029	G:maj
=35	=35	=35	=35	=35	=35	=35	=35
1r	.	1CM	.	r	.	72.962	C:maj
=36	=36	=36	=36	=36	=36	=36	=36
1r	.	1GM	.	r	.	74.894	G:maj
=37	=37	=37	=37	=37	=37	=37	=37
1r	.	1GM	.	r	.	76.827	G:maj
=38	=38	=38	=38	=38	=38	=38	=38
1r	.	1GM	newline	r	.	78.759	G:maj
=39	=39	=39	=39	=39	=39	=39	=39
1r	.	1CM	.	r	.	80.663	C:maj
=40	=40	=40	=40	=40	=40	=40	=40
1r	.	1GM	.	r	.	82.566	G:maj
=41	=41	=41	=41	=41	=41	=41	=41
1r	.	1GM	.	r	.	84.47	G:maj
=42	=42	=42	=42	=42	=42	=42	=42
1r	.	1CM	newline	r	.	86.373	C:maj
=43	=43	=43	=43	=43	=43	=43	=43
1r	.	1CM	.	r	.	88.294	C:maj
=44	=44	=44	=44	=44	=44	=44	=44
1r	.	1GM	.	r	.	90.214	G:maj
=45	=45	=45	=45	=45	=45	=45	=45
1r	.	1GM	.	r	.	92.135	G:maj
=46	=46	=46	=46	=46	=46	=46	=46
1r	.	1DM	newline	r	.	94.055	D:maj
=47	=47	=47	=47	=47	=47	=47	=47
1r	.	1CM	.	r	.	95.963	C:maj
=48	=48	=48	=48	=48	=48	=48	=48
1r	.	1GM	.	r	.	97.87	G:maj
=49	=49	=49	=49	=49	=49	=49	=49
8r	.	1GM	.	r	.	99.778	G:maj
8b-	Ah,	.	.	.	.	.	.
8b-	sit-	.	.	.	.	.	.
8b-	-tin	.	.	.	.	.	.
8b-	on	.	.	.	.	.	.
8b-	my	.	.	.	.	.	.
4b-	front	.	.	.	.	.	.
=50	=50	=50	=50	=50	=50	=50	=50
*>Letter>A	*>Letter>A	*>Letter>A	*>Letter>A	*>Letter>A	*>Letter>A	*>Letter>A	*>Letter>A
*>Label>Verse	*>Label>Verse	*>Label>Verse	*>Label>Verse	*>Label>Verse	*>Label>Verse	*>Label>Verse	*>Label>Verse
4d	porch	1GM	newline	r	E	101.685	G:maj
4r	.	.	.	.	.	.	.
4r	.	.	.	.	.	.	.
8r	.	.	.	.	.	.	.
[8g	Mmm	.	.	.	.	.	.
=51	=51	=51	=51	=51	=51	=51	=51
2.g]	_	1CM	.	r	.	103.639	C:maj
8e	Sweet	.	.	.	.	.	.
[8e	no-	.	.	.	.	.	.
=52	=52	=52	=52	=52	=52	=52	=52
8e]	_	1GM	.	r	.	105.592	G:maj
4.d	-thin's	.	.	.	.	.	.
2r	.	.	.	.	.	.	.
=53	=53	=53	=53	=53	=53	=53	=53
8r	.	1GM	.	r	.	107.546	G:maj
8b-	Well,	.	.	.	.	.	.
8b-	do	.	.	.	.	.	.
8b-	I	.	.	.	.	.	.
8b-	love	.	.	.	.	.	.
8b-	you?	.	.	.	.	.	.
4b	Of	.	.	.	.	.	.
=54	=54	=54	=54	=54	=54	=54	=54
4d	course	1GM	newline	r	E	109.5	G:maj
4r	.	.	.	.	.	.	.
4r	.	.	.	.	.	.	.
8r	.	.	.	.	.	.	.
[8g	Mmm	.	.	.	.	.	.
=55	=55	=55	=55	=55	=55	=55	=55
2.g]	_	1CM	.	r	.	111.421	C:maj
8e	Sweet	.	.	.	.	.	.
[8e	no-	.	.	.	.	.	.
=56	=56	=56	=56	=56	=56	=56	=56
8e]	_	1GM	.	r	.	113.341	G:maj
4.d	-thin's	.	.	.	.	.	.
2r	.	.	.	.	.	.	.
=57	=57	=57	=57	=57	=57	=57	=57
1r	.	1GM	.	r	.	115.262	G:maj
=58	=58	=58	=58	=58	=58	=58	=58
8e	Ma-	1CM	newline	r	.	117.183	C:maj
8g	-ma	.	.	.	.	.	.
8a	turned	.	.	.	.	.	.
[8b-	on	.	.	.	.	.	.
4b-]	_	.	.	.	.	.	.
8r	.	.	.	.	.	.	.
8g	the	.	.	.	.	.	.
=59	=59	=59	=59	=59	=59	=59	=59
8b-	front	1CM	.	r	.	119.111	C:maj
4b-	porch	.	.	.	.	.	.
8g	light	.	.	.	F	.	.
4r	Said	.	.	.	.	.	.
4r	.	.	.	.	.	.	.
=60	=60	=60	=60	=60	=60	=60	=60
4r	.	1GM	.	SpokenWord	.	121.039	G:maj
8r	come	.	.	.	.	.	.
8r	here	.	.	.	.	.	.
8r	dar-	.	.	.	.	.	.
4r	-ling	.	.	.	.	.	.
8r	that's	.	.	.	.	.	.
=61	=61	=61	=61	=61	=61	=61	=61
8r	en-	1GM	.	r	.	122.967	G:maj
8r	-ough	.	.	.	.	.	.
8r	for	.	.	.	.	.	.
8r	to-	.	.	.	.	.	.
4r	-night	.	.	.	F	.	.
8e	Sweet	.	.	.	.	.	.
[8e	no-	.	.	.	.	.	.
=62	=62	=62	=62	=62	=62	=62	=62
8e]	_	1DM	newline	r	.	124.895	D:maj
4.d	-thin's	.	.	.	.	.	.
4r	.	.	.	.	.	.	.
8r	.	.	.	.	.	.	.
[8g	Mmm	.	.	.	.	.	.
=63	=63	=63	=63	=63	=63	=63	=63
2.g]	_	1CM	.	r	.	126.815	C:maj
8e	Sweet	.	.	.	.	.	.
[8e	no-	.	.	.	.	.	.
=64	=64	=64	=64	=64	=64	=64	=64
8e]	_	1GM	.	r	.	128.735	G:maj
4.d	-thin's	.	.	.	.	.	.
2r	.	.	.	.	.	.	.
=65	=65	=65	=65	=65	=65	=65	=65
2r	.	1GM	.	r	.	130.655	G:maj
4r	.	.	.	.	.	.	.
8e	Sweet	.	.	.	.	.	.
[8e	no-	.	.	.	.	.	.
=66	=66	=66	=66	=66	=66	=66	=66
8e]	_	1DM	newline	r	.	132.574	D:maj
4.d	-thin's	.	.	.	.	.	.
4r	.	.	.	.	.	.	.
8r	.	.	.	.	.	.	.
[8g	Mmm	.	.	.	.	.	.
=67	=67	=67	=67	=67	=67	=67	=67
2.g]	_	1CM	.	r	.	134.462	C:maj
8e	Sweet	.	.	.	.	.	.
[8e	no-	.	.	.	.	.	.
=68	=68	=68	=68	=68	=68	=68	=68
8e]	_	1GM	.	r	.	136.35	G:maj
4.d	-thin's	.	.	.	.	.	.
2r	.	.	.	.	.	.	.
=69	=69	=69	=69	=69	=69	=69	=69
*M2/4	*	*M2/4	*M2/4	*M2/4	*	*M2/4	*M2/4
4r	.	2GM	.	r	.	138.238	G:maj
4r	.	.	.	.	.	.	.
=70	=70	=70	=70	=70	=70	=70	=70
*M4/4	*	*M4/4	*M4/4	*M4/4	*	*M4/4	*M4/4
1r	.	1N	newline	r	.	139.182	N.C.
=71	=71	=71	=71	=71	=71	=71	=71
1r	.	1GM	.	r	.	140.992	G:maj
r;	.	1r;	.	r	.	142.803	N.C.
r;	.	1r;	.	r	.	145.763	N.C.
*-	*-	*-	*-	*-	*-	*-	*-
!!!BillboardChartDate: 1960/01/04
!!!BillboardPeak: 4
!!!BillboardWeeksOnChart: 24
!!!COC: Brenda Lee
!!!ENC: Nathaniel Condit-Schultz
!!!EST: Awating manual error checking and editing.
!!!OTL: Sweet Nothin's
!!!RDF**chordsym: original McGill chord annotation + (implied pitch class set, with bass pitch in first position)
!!!RDF**harmony: **recip + pitch class of root + harmonic quality
!!!RDF**leadinstrument: original McGill primary instrumentation annotation
!!!RDF**phrase: newline = linebreak in original McGill transcription
!!!RDF**timestamp: McGill audio timestamp in seconds
!!!RDT: 2017/01/12/
!!!SampleActualRank: 79
!!!SampleID#: 0162
!!!SampleTargetRank: 77
